public/images/icons/editor/quote.svg

<svg xmlns="http://www.w3.org/2000/svg" height="13" viewBox="0 0 17 12"><path d="M5 0H2a2 2 0 0 0-2 2v3a2 2 0 0 0 2 2h3a1.7 1.7 0 0 0 1-.3V10a.9.9 0 0 1-1 1H3v1h2a2 2 0 0 0 2-2V2a2 2 0 0 0-2-2zm0 6H2a.9.9 0 0 1-1-1V2a.9.9 0 0 1 1-1h3a.9.9 0 0 1 1 1v3a.9.9 0 0 1-1 1zM15 0h-3a2 2 0 0 0-2 2v3a2 2 0 0 0 2 2h3a1.7 1.7 0 0 0 1-.3V10a.9.9 0 0 1-1 1h-2v1h2a2 2 0 0 0 2-2V2a2 2 0 0 0-2-2zm0 6h-3a.9.9 0 0 1-1-1V2a.9.9 0 0 1 1-1h3a.9.9 0 0 1 1 1v3a.9.9 0 0 1-1 1z"/></svg>

<svg xmlns="http://www.w3.org/2000/svg" height="13" viewBox="0 0 17 12">
    <path d="M5,0H2A2,2,0,0,0,0,2V5A2,2,0,0,0,2,7H5a1.7,1.7,0,0,0,1-.3V10a.9.9,0,0,1-1,1H3v1H5a2,2,0,0,0,2-2V2A2,2,0,0,0,5,0ZM5,6H2A.9.9,0,0,1,1,5V2A.9.9,0,0,1,2,1H5A.9.9,0,0,1,6,2V5A.9.9,0,0,1,5,6Z"/>
    <path d="M15,0H12a2,2,0,0,0-2,2V5a2,2,0,0,0,2,2h3a1.7,1.7,0,0,0,1-.3V10a.9.9,0,0,1-1,1H13v1h2a2,2,0,0,0,2-2V2A2,2,0,0,0,15,0Zm0,6H12a.9.9,0,0,1-1-1V2a.9.9,0,0,1,1-1h3a.9.9,0,0,1,1,1V5A.9.9,0,0,1,15,6Z"/>
</svg>
